X:1
T: The Edinburgh Castle Reel
C:
R:Reel
Q: 232
K:A
M:4/4
L:1/8
|:F|EC A,C E2 EF|AB cA BB, B,F|EC A,C E2 EF|EF AB cA AF|
EC A,C E2 EF|AB cA BB, B,F|EC A,C E2 EF|EF AB cA Ae|
AA cA fA A=g|fd ec dB Be|AA cA fA A=g|f^g1/2a1/2 ea cA AE|
AA cA fA A=g|fd ec dB Bd|cA GA FA df|ef ga cA A:|
